packages/icons/src/svg/16/pause_16.svg

<svg width="16" height="16" viewBox="0 0 16 16" fill="none" xmlns="http://www.w3.org/2000/svg">
<path d="M5.97445 3C6.33105 3 6.46037 3.03713 6.59074 3.10685C6.72111 3.17658 6.82342 3.27889 6.89315 3.40926C6.96287 3.53963 7 3.66895 7 4.02555V11.9744C7 12.3311 6.96287 12.4604 6.89315 12.5907C6.82342 12.7211 6.72111 12.8234 6.59074 12.8931C6.46037 12.9629 6.33105 13 5.97445 13H5.02555C4.66895 13 4.53963 12.9629 4.40926 12.8931C4.27889 12.8234 4.17658 12.7211 4.10685 12.5907C4.03713 12.4604 4 12.3311 4 11.9744V4.02555C4 3.66895 4.03713 3.53963 4.10685 3.40926C4.17658 3.27889 4.27889 3.17658 4.40926 3.10685C4.53963 3.03713 4.66895 3 5.02555 3H5.97445ZM10.9744 3C11.3311 3 11.4604 3.03713 11.5907 3.10685C11.7211 3.17658 11.8234 3.27889 11.8931 3.40926C11.9629 3.53963 12 3.66895 12 4.02555V11.9744C12 12.3311 11.9629 12.4604 11.8931 12.5907C11.8234 12.7211 11.7211 12.8234 11.5907 12.8931C11.4604 12.9629 11.3311 13 10.9744 13H10.0256C9.66895 13 9.53963 12.9629 9.40926 12.8931C9.27889 12.8234 9.17658 12.7211 9.10685 12.5907C9.03713 12.4604 9 12.3311 9 11.9744V4.02555C9 3.66895 9.03713 3.53963 9.10685 3.40926C9.17658 3.27889 9.27889 3.17658 9.40926 3.10685C9.53963 3.03713 9.66895 3 10.0256 3H10.9744Z" fill="currentColor"/>
</svg>

<svg xmlns="http://www.w3.org/2000/svg" width="16" height="16" viewBox="0 0 16 16" fill="currentColor"><path d="M5.974 3c.357 0 .486.037.617.107q.196.106.302.302c.07.13.107.26.107.617v7.948c0 .357-.037.486-.107.617a.73.73 0 0 1-.302.302c-.13.07-.26.107-.617.107h-.948c-.357 0-.486-.037-.617-.107a.73.73 0 0 1-.302-.302c-.07-.13-.107-.26-.107-.617V4.026c0-.357.037-.486.107-.617a.73.73 0 0 1 .302-.302c.13-.07.26-.107.617-.107zm5 0c.357 0 .486.037.617.107q.196.106.302.302c.07.13.107.26.107.617v7.948c0 .357-.037.486-.107.617a.73.73 0 0 1-.302.302c-.13.07-.26.107-.617.107h-.948c-.357 0-.486-.037-.617-.107a.73.73 0 0 1-.302-.302c-.07-.13-.107-.26-.107-.617V4.026c0-.357.037-.486.107-.617a.73.73 0 0 1 .302-.302c.13-.07.26-.107.617-.107z"/></svg>
